X:117
T:Wedding Day, The
M:6/8
L:1/8
B:Thompson's Compleat Collection of 200 Favourite Country Dances, vol. 2 (London, 1765)
Z:Transcribed and edited by Flynn Titford-Mock, 2007
Z:abc's:AK/Fiddler's Companion
K:A
Aed cBA | BBB B2c | d2f ecA | G2A B3 | Aed cBA | BBB "tr"B2c | d2e fga | gaf e3 :|
|: eba gfe | fff "tr"f2g | a2g "tr"f2e | d2c "tr"B3 | eba gfe | "tr"f2g a2f | edc BAG | AAA A3 :|

